packages/foundations/assets/icons/functional/images/social/thumbs_up_32.svg

<svg width="32" height="32" viewBox="0 0 32 32" fill="none" xmlns="http://www.w3.org/2000/svg">
<g clip-path="url(#clip0_187_537)">
<path fill-rule="evenodd" clip-rule="evenodd" d="M21.643 12C22.26 10.68 23.016 8.71302 23.016 7.00002C23.016 4.64502 21.776 2.99902 20 2.99902C18.348 2.99902 17.993 4.11402 17.707 5.01102C17.567 5.44902 17.409 5.94702 17.105 6.55302C15.63 9.50202 12.313 11.929 11.019 12.797C10.485 12.307 9.78 12.001 8.999 12.001H5C3.346 12.001 2 13.347 2 15.001V24.001C2 25.655 3.346 27.001 5 27.001H9C9.83 27.001 10.582 26.661 11.126 26.115C12.986 26.801 19.101 29.001 21 29.001C25.881 29.001 30 21.63 30 17.001C30 15.131 30 12.001 26 12.001L21.643 12ZM10 24C10 24.552 9.551 25 9 25H5C4.449 25 4 24.552 4 24V15C4 14.448 4.449 14 5 14H9C9.551 14 10 14.448 10 15V24ZM11.97 24.293C11.98 24.195 12 24.1 12 24V15C12 14.855 11.977 14.716 11.957 14.577C13.261 13.725 17.12 10.996 18.894 7.44802C19.267 6.70302 19.466 6.07602 19.612 5.61902C19.693 5.36602 19.793 5.05202 19.79 5.01902C19.79 5.01902 19.846 4.99902 19.999 4.99902C20.697 4.99902 21.015 6.03602 21.015 7.00002C21.015 9.28402 19.157 12.46 19.139 12.491C18.956 12.801 18.953 13.183 19.132 13.496C19.31 13.808 19.641 14 20 14H26C27.598 14 28 14.354 28 17C28 20.948 24.246 27 21 27C19.762 27 15.053 25.426 11.97 24.293Z" fill="#1A1C1F"/>
</g>
<defs>
<clipPath id="clip0_187_537">
<rect width="32" height="32" fill="white"/>
</clipPath>
</defs>
</svg>

<svg xmlns="http://www.w3.org/2000/svg" width="32" height="32" fill="none"><g clip-path="url(#a)"><path fill="#1A1C1F" fill-rule="evenodd" d="M21.643 12c.617-1.32 1.373-3.287 1.373-5 0-2.355-1.24-4.001-3.016-4.001-1.652 0-2.007 1.115-2.293 2.012-.14.438-.298.936-.602 1.542-1.475 2.949-4.792 5.376-6.086 6.244a2.98 2.98 0 0 0-2.02-.796H5c-1.654 0-3 1.346-3 3v9c0 1.654 1.346 3 3 3h4c.83 0 1.582-.34 2.126-.886 1.86.686 7.975 2.886 9.874 2.886 4.881 0 9-7.371 9-12 0-1.87 0-5-4-5zM10 24c0 .552-.449 1-1 1H5c-.551 0-1-.448-1-1v-9c0-.552.449-1 1-1h4c.551 0 1 .448 1 1zm1.97.293c.01-.098.03-.193.03-.293v-9c0-.145-.023-.284-.043-.423 1.304-.852 5.163-3.581 6.937-7.129.373-.745.572-1.372.718-1.829.081-.253.181-.567.178-.6 0 0 .056-.02.209-.02.698 0 1.016 1.037 1.016 2.001 0 2.284-1.858 5.46-1.876 5.491A.999.999 0 0 0 20 14h6c1.598 0 2 .354 2 3 0 3.948-3.754 10-7 10-1.238 0-5.947-1.574-9.03-2.707" clip-rule="evenodd"/></g><defs><clipPath id="a"><path fill="#fff" d="M0 0h32v32H0z"/></clipPath></defs></svg>
